outputs/icons/device/usb_round.svg

<svg xmlns="http://www.w3.org/2000/svg" width="1200" height="1200" fill="none"><g clip-path="url(#a)"><path fill="#000" d="M900.82 301.587H756.87v144.742h42.735v8.272c0 99.344-118.32 134.064-191.755 194.954V234.017h67.83L578.48 50l-98.549 184.017h68.364v564.558C474.324 728.62 356.823 673.34 356.823 568.92v-33.985a77.86 77.86 0 0 0 34.223-28.755 77.83 77.83 0 0 0 12.764-42.834c0-41.38-33.365-76.894-76.098-76.894A77.347 77.347 0 0 0 250 463.346c0 31.798 19.745 59.039 47.524 71.589v29.11c0 201.1 250.771 240.865 250.771 352.5v23.25a106.14 106.14 0 0 0-56.338 38.385 106.17 106.17 0 0 0-21.372 64.74c0 59.275 48.6 107.08 107.895 107.08 59.3 0 108.63-47.865 108.63-107.06a107 107 0 0 0-22.175-65.01 106.93 106.93 0 0 0-57.15-38.115v-173.06c0-119.905 251.375-120.165 251.375-314.065v-6.446h41.66z"/></g><defs><clipPath id="a"><path fill="#fff" d="M0 0h1200v1200H0z"/></clipPath></defs></svg>

<svg width="1200" height="1200" viewBox="0 0 1200 1200" fill="none" xmlns="http://www.w3.org/2000/svg"><g clip-path="url(#clip0_231_4426)"><path d="M900.82 301.587H756.87V446.329H799.605V454.601C799.605 553.945 681.285 588.665 607.85 649.555V234.017H675.68L578.48 50L479.931 234.017H548.295V798.575C474.324 728.62 356.823 673.34 356.823 568.92V534.935C370.796 528.9 382.694 518.905 391.046 506.18C399.397 493.459 403.834 478.566 403.81 463.346C403.81 421.966 370.445 386.452 327.712 386.452C307.213 386.355 287.514 394.399 272.943 408.817C258.372 423.236 250.12 442.848 250 463.346C250 495.144 269.745 522.385 297.524 534.935V564.045C297.524 765.145 548.295 804.91 548.295 916.545V939.795C525.805 946.045 506.005 959.54 491.957 978.18C477.909 996.825 470.398 1019.58 470.585 1042.92C470.585 1102.195 519.185 1150 578.48 1150C637.78 1150 687.11 1102.135 687.11 1042.94C687.065 1019.425 679.27 996.57 664.935 977.93C650.595 959.285 630.51 945.89 607.785 939.815V766.755C607.785 646.85 859.16 646.59 859.16 452.69V446.244H900.82V301.587Z" fill="black"/></g><defs><clipPath id="clip0_231_4426"><path width="24" fill="white" d="M0 0H1200V1200H0V0z"/></clipPath></defs></svg>
